X:1
T:Mass SATB
T:William Byrd
T:Mass for four voices
T:1. Kyrie eleison
C:William Byrd
%%score [ 1 2 3 4 ]
L:1/8
Q:1/2=80
M:4/2
K:Ab
V:1 treble nm="Sopran" snm="S."
V:2 treble nm="Alt" snm="A."
V:3 treble-8 nm="Tenor" snm="T."
V:4 bass nm="Bas" snm="B."
V:1
 z16 |!p! c8 F4 A4 | G8 F8 | F8 B,4 D4 | C6 D2 E2 F2 G4- | G2 F2 F8 =E4 | F8 z4 c4- | %7
w: |Ky- rie e-|lei- son,|Ky- rie e-|le- * * * *|* * * i-|son, Ky-|
 c4 F4 G4 B4- |"^rit." (B4 A4 G8) | =A16 ||[Q:1/2=80] z8 z4 c4- | c4 B8 _A4 | G8 F8 | z8 B8 | %14
w: * rie e- lei-||son.|Chri-|* ste e-|lei- son,|Chri-|
 A4 G4 F8 | E8 z8 | z4 e8 =d4- | d4 c4 B8- | (B4 A4) G8 |[M:3/1]"^rit." G8 G4 G4 | G8 | %21
w: ste e- lei-|son,|Chri- ste|_ e- lei-|* * son,|Chri- ste e-|lei-|
[M:4/2] G16 ||[Q:1/2=88] A6 A2 G4 c4- | c4 B4 c8 |[M:3/1] z8 F6 F2 | E4 A4 |[M:4/2] A4 G4 A8 | %27
w: son.|Ky- ri- e e-|* lei- son,|Ky- ri-|e e-|* lei- son,|
 z8 c8 | B4 G4 A8 | G4 G3 G F4 B4- | B4 =A4 B8 | c6 c2 B4 e4- | e4 =d4 e8 | z16 | z8"^rit." z8 | %35
w: Ky-|rie e- lei-|son, Ky- ri- e e-|* lei- son,|Ky- ri- e e-|* lei- son,|||
 c8 B4 G4 | (A8 G8) | =A16 |][M:13/4]"^2. Gloria in excelsis" z26 |[M:4/2][Q:1/2=104] z8 c8- | %40
w: Ky- rie e-|lei- *|son.||Et|
 c4 G4 B8 | A8 G8 | z4 G4 c6 c2 | F4 A8 G4 | E2 F2 G6 F2 F4- | F4 =E4 F8 | z8 z4 c2 c2 | B4 G4 A8 | %48
w: _ in ter-|ra pax|ho- mi- ni-|bus bo- nae|vo- lun- ta- * *|* * tis.|Be- ne-|di- ci- mus|
 G4 z4 z4 F4 | G4 =A4 B4 d4 | c8 z4 F4 | _A6 B2 c4 d4 | c4 B2 d4 c2 B4 | (=A4 B8 A4) | B8 z4 B4- | %55
w: te. Glo-|ri- fi- ca- mus|te, glo-|ri- fi- ca- mus|te, glo- ri- fi- ca-|mus _ _|te. Gra-|
 B2 B2 B4 c6 c2 | c8 d8 | c4 c8 B4 | _A4 G4 A2 A2 B4 | c8 A4 c4- | c4 B4 A4 G4 | A2 A2 B4 c8 | %62
w: * ti- as a- gi-|mus ti-|bi pro- pter|ma- gnam glo- ri- am|tu- am, pro-|* pter ma- gnam|glo- ri- am tu-|
 =A8 z8 | z8 z4 c4- | c2 c2 d4 B8 | A4 c8 B4 | c4 F4 A4 G4 | F4 =E4 F8 | z4 _E8 F4 | G4 E4 F4 A4- | %70
w: am.|Do-|* mi- ne De-|us, Rex coe-|le- * * *|* * stis,|De- us|Pa- ter o- mni-|
 A4 G4 A8- | A8 z8 | z16 | z16 | z8 A8 | B8 c4 A4 | c4 e8 =d4 | e8 z4 c4- | c2 c2 G4 A8 | %79
w: * po- tens,|_|||De-|us Pa- ter|o- mni- po-|tens. Do-|* mi- ne Fi-|
 G4 A8 B4 | c6 c2 F8 | z8 z4 B4- | B2 A2 (A8 G4) | A8 z8 | z4 A6 G2 G4- | (G4 F4) G8 |"^rit." z16 | %87
w: li u- ni-|ge- ni- te,|Je-|* su Chri- *|ste,|Je- su Chri-|* * ste,||
[M:3/1] z4 A6 G2 (G8 F4) |[M:4/2] !fermata!G16 ||[M:4/2][Q:1/2=104][Q:1/2=104] z16 | z16 | z16 | %92
w: Je- su Chri- *|ste.||||
 z16 | z16 | z16 | z16 | z16 | z16 | z16 ||[M:3/1] z16 |[M:4/2] z8 z4 B4 | e8 c4 e4 | %102
w: ||||||||Qui|tol- lis pec-|
 d4 c4 (B2 c2 d4) | c8 z8 | z4 A4- A4 G4 | F4 E4 (A4 B4 | c4 d4) c8 | z16 | z4 c4- c4 B4 | %109
w: ca- ta mun- * *|di:|mi- * se-|re- re no- *|* * bis,||mi- * se-|
 A4 G4 c4 d4 | e6 d2"^rit." c2 B2 A4- | A2 B2 c4 d8 |[Q:1/2=104] c16 | z4 A4 c4 F4 | A4 G8 E4 | %115
w: re- re no- *|||bis.|Qui tol- lis|pec- ca- ta|
 B8 E8 | z4 B6 B2 F4 | G4 E4 G6 A2 | B8 A4 c4- | c2 B2 A2 B2 c2 A2 B4 | A16 | z4 e6 e2 B4 | %122
w: mun- di,|sus- ci- pe|de- pre- ca- ti-|o- nem no-||stram,|sus- ci- pe|
 c4 A4 c6 d2 | e8 c4 d4- | d2 c2 A2 B2 c2 A2 B4- | B2 A2 A8 G4 |[Q:1/2=104] A8 z4 A4 | B8 G8 | %128
w: de- pre- ca- ti-|o- nem no-|||stram, Qui|se- des|
 z4 B4 e6 e2 | c4 d4 c4 B4- | B2 E2 A4 G8 | z16 | z8 B2 c2 d4 | c4 e6 A2 d4 | c4 B4 B8 | %135
w: ad dex- te-|ram Pa- * *|* * * tris:||mi- se- re-|re no- * *|* * bis.|
[Q:1/2=108] z4 B8 c4 | B4 E4 A4 G4 | F8 G8 | z8 B8 | c6 B2 A4 F4 | B8 z4 G4 | A6 G2 F4 G4 | G8 z8 | %143
w: Quo- ni-|am tu so- lus|San- ctus,|tu|so- lus Do- mi-|nus, tu|so- lus Do- mi-|nus,|
 z4 B8 c4- | c2 c2 =d4 e6 !courtesy!_d2 | c2 B2 A8 G4 | B4 B4 c8 | z4 B4 c6 c2 | =d4 (e6 d2) c4 | %149
w: tu so-|* lus Al- tis- *||* si- mus,|tu so- lus|Al- tis- * si-|
 =B8 c6 _B2 | (A4 G8 F4) | G16 | z8 z4 A4 | B4 c4 d6 d2 | c8 z4 c4 | A6 A2 G4 B4 | E4 (A8 G4) | %157
w: mus, Je- su|Chri- * *|ste,|cum|San- cto Spi- ri-|tu in|glo- ri- a De-|i Pa- *|
 A8 z4 e4 | c6 c2 A4 c4- | c2 B2 A2 G2 A2 F2 c4- | c4 B4 c8 | c12 d4 | c8 c8 | %163
w: tris, in|glo- ri- a De-|* i Pa- * * * *|* * tris,|De- i|Pa- tris.|
 z4 c4"^rit." c2 B2 A2 G2 | A4 F4 B4 d4- | d2 c2 c4- c2 B2 B4- | B4 =A2 G2 !fermata!A8 | %167
w: A- * * * *|* * men. A-||* * * men.|
[M:7/4]"^3. Credo" z14 |[M:4/2][Q:1/2=96] z8 c8 | c4 B4 c4 A4 | (G6 A2) B8 | z4 F4 A6 B2 | %172
w: |Pa-|trem o- mni- po-|ten- * tem,|fa- cto- rem|
 (c2 d2 e4) e4 d4 | c6 d2 c4 B2 A2 | B2 c2 B6 A2 A4- | A4 G4 A8 | z4 A4- A4 A4 | d6 d2 c4 c4- | %178
w: coe- * * li et|ter- * * * *||* * rae,|vi- * si-|bi- li- um o-|
 c2 (B2 A4) G4 G4- | G4 F4 A4 G2 G2- | G2 (FE F4) G8 | z8 z4 F4- | F4 E4 A8- | A4 B4 c6 c2 | %184
w: * mni- * um et|* in- vi- si- bi-|* li- * * um.|Et|* in u-|* num Do- mi-|
 A4 d4- d2 c2 (c4- | c4 B4) A4 e4- | e2 e2 d4 c8- | c4 B4 d4 c4- | c4 B4- B4 A4 | F8 A4 G4- | %190
w: num Je- * sum Chri-|* * stum, Fi-|* li- um De-|* i u- ni-|* ge- * ni-|tum, u- ni-|
 G4 F8 =E4 | F16 | z16 | z16 | z16 | z8 z4 B4- | B4 G4 A4 c4- | (c4 B4) c8 | z16 | c8 B4 d4- | %200
w: * ge- ni-|tum:||||De-|* um de De-|* * o,||De- um ve-|
 d4 c4 z4 B4 | F4 A4 (B2 c2 d4) | d4 c4 B2 A2 A2 GF | G8 z8 | z8 c6 B2 | c4 d4 e8 | %206
w: * rum de|De- o ve- * *|* ro ve- * * * *|ro,|ge- ni-|tum non fa-|
 A4 A4- A2 G2 A2 B2 | c4 G4 A8 | G4 c4- c2 B2 c2 d2 | e4 A4 d8 | c8- c8 | z16 | A4 B4 c6 c2 | %213
w: ctum, con- * sub- stan- ti-|a- lem Pa-|tri, con- * sub- stan- ti-|a- lem Pa-|tri, _||per quem o- mni-|
 F4 c4- c4 B4 | c8 z8 | z16 | c4 d4 e6 d2 | c4 A2 B2"^rit." c4 B4- | B2 A2 G6 (A2 F4) | %219
w: a fa- * cta|sunt,||per quem o- mni-|a fa- * * *|* * * cta _|
 !fermata!G16 ||[Q:1/2=96] c8 c4 B4 | c4 d6 c2 A4 | z4 c4 B4 G4 | A8 G4 E4 | F8 =E8 | z4 F4 D8 | %226
w: sunt.|Qui pro- pter|nos ho- mi- nes|et pro- pter|no- stram sa-|lu- tem|de- scen-|
 C8 A4 c4- | c2 B2 G2 A2 B6 AG |"^rit." F2 G2 A6 G2 G2 FE | F8[Q:1/2=80] G8 | z8 z4 F4 | %231
w: dit de- coe-|||* lis:|Et|
 A8 G4 A4- | A2 B2 A4 z8 | z8 z4 F4 | A6 B2 c4 (d4- | d2 c2 B4) A8- | A8 z4 B4- | B4 A4 B4 d4 | %238
w: in- car- na-|* tus est|de|Spi- ri- tu San-|* * * cto|* ex|* Ma- ri- a|
 (c6 B2 A4) B4 | A8 z8 | z4 F4"^rit." A4 G4 | B6 A2 G2 F2 G4- | G4 F4 A6 G2 | %243
w: vir- * * gi-|ne,|et ho- mo|fa- * * * *||
 F2 E2 F4[Q:1/2=72] =E8 | z4!p! G4- G4 G4 | c4 B4 c6 B2 | G4 c4 =B8 | c4 A4 G6 F2 | %248
w: * * ctus est.|Cru- * ci-|fi- xus e- ti-|am pro no-|bis sub Pon- ti-|
 =E2 F2 (G2 A2 B4) F4 | z4 G4-"^rit." G4 F4 | E4 E4 A8- | A8 F8 |[Q:1/2=104] F8 z8 | z16 | %254
w: o Pi- la- * * to|pas- * sus|et se- pul-|* tus|est.||
 z8 z4!f! F4 | B4 c4 d4 e4 | c6 c2 B4 A4 | G8 z4 F4 | B4 G2 B2 A4 F4 | G4 A2 G2 F2 E2 F4- | %260
w: Et|re- sur- re- xit|ter- ti- a di-|e se-|cun- dum scrip- tu- ras,|scrip- tu- * * * *|
 F4 =E4 F8 | F6 G2 A4 B2 c2 | (d4 e4) f8 | z4 e4 B4 c4 | d6 d2 d4 c4- | (c2 B2 A2 B2) c4 z2 c2 | %266
w: * * ras.|Et a- scen- dit in|coe- * lum,|se- det ad|dex- te- ram Pa-|* * * * tris, se-|
 F4 G4 A6 G2 | A4 B2 d2 c3 B A2 Bc | d2 c2 B4 z2 A2 c3 c | B2 (A4 G2)[Q:1/2=104] A8- | A8 z8 | %271
w: det ad dex- te-|ram Pa- * * * * * *|* * tris, ad dex- te-|ram Pa- * tris,||
 z4 E4 e6 e2 | d4 e4 c4 e4 | B8 z8 | z8 z4 A4 | e6 e2 d4 c4- | c2 (B2 c4) A8 | G8 z4 F4 | %278
w: et i- te-|rum ven- tu- rus|est|cum|glo- ri- a ju-|* di- * ca-|re vi-|
 c4 c4 d6 d2 | c16 | z4 A4- A2 B2 c4- | c4 F4- F4 A4 | d8 c8 | (c6 B2 A4) G4 | z4 c4- c2 d2 e4- | %285
w: vos et mor- tu-|os,|cu- * jus re-|* gni * non|e- rit|fi- * * nis,|cu- * jus re-|
 e4 B4 z4 d4 | c4 A4 c8- | c4 A4 z8 |[Q:1/2=104] z4 A8 A4 | B6 B2 c8 | d8 c8 | B6 B2 B4 e4 | %292
w: * gni non|e- rit fi-|* nis.|Et in|Spi- ri- tum|San- ctum|Do- mi- num et|
 A4 B2 d2 c4 B4 | z4 B4 E4 F2 A2 | G4 E4 z8 | z16 | z4 c6 B2 (c2 d2 | e4) E4 z8 | z4 d4 c4 B4- | %299
w: vi- vi- fi- can- tem,|et vi- vi- fi-|can- tem,||qui ex Pa- *|* tre|Fi- li- o-|
 B2 A2 A4 (G3 A B2 G2) |[Q:1/2=104] A8 z8 | z4 A8 c4 | d8 B4 B4 | c12 B4 | B8 z4 A4- | %305
w: * que pro- ce- * * *|dit,|qui cum|Pa- tre et|Fi- li-|o si-|
 A2 B2 c8 d4 | (e4 A4 d8) | c8 z4 c4 | B4 G4 A6 B2 | c8 F8 | z4 c8 c4 | d4 c4 c8 | z4 e8 A4 | %313
w: * mul a- do-|ra- * *|tur et|con- glo- ri- fi-|ca- tur,|qui lo-|cu- tus est|per Pro-|
 (c6 d2 c4) B2 B2 |[M:3/1]"^rit." B2 A2 A8 G2 F2 | G2 A4 G2 |[M:4/2] !fermata!A16 || %317
w: phe- * * tas, per|* Pro- phe- * *||tas.|
[Q:1/2=104] A8 c4 A4 | z4 (c6 d2 e4) | c8 z4 c4 | d6 c2 B4 B4 | A6 A2 G4 G4 | A4 B4 c6 c2 | %323
w: Et u- nam|san- * *|ctam ca-|tho- li- cam, ca-|tho- li- cam et|a- po- sto- li-|
 B8 d4 c4- | c4 B4 c8 | z4 =A4 B6 B2 | G4 B8 G4 | _A8 F8- | F8 F8 | z4 B8 F4 | _A6 B2 c8 | %331
w: cam Ec- cle-|* si- am.|Con- fi- te-|or u- num|bap- tis-|* ma|in re-|mis- si- o-|
 A4 B6 A2 c4- | (c2 B2 A4) G8 | z4 G4 F4 A4- | A4 G4 A3 B c2 d2 | e4 B4 c6 B2 | (G4 A4) B4 d4- | %337
w: nem pec- ca- to-|* * * rum:|Et ex- spe-|* cto re- sur- re- cti-|o- nem mor- tu-|o- * rum, mor-|
 d2 c2 c8 F4 ||"^rit." F4 B6 A2 (A4- | A4 G4)[Q:1/2=104] A8 | z16 | z4 d4 c4 B2 c2 | d4 c4 B6 B2 | %343
w: * tu- o- rum,|_ mor- tu- o-|* * rum||et vi- tam ven-|tu- ri sae- cu-|
 A8 z4 G4 | A4 F2 A2 G4 E4 | z4 c4 e4 B2 d2 | c4 A4 c6 c2 | B4 c4-"^rit." c2 B2 A2 GF | %348
w: li, et|vi- tam ven- tu- ri,|et vi- tam ven-|tu- ri sae- cu-|li. A- * * * * *|
 E2 C2 c4- c4 B4 | c8 d8 | c16 | !fermata!=A16 | %352
w: |men. A-||men.|
[M:4/2]"^4. Sanctus - Benedictus"[Q:1/2=88] F6 G2 A2 B2 c4- | c4 B2 A2 G4 E4 | A8 G6 B2 | =A8 z8 | %356
w: San- * * * *|||ctus,|
 z16 | F6 G2 _A4 B4 | c4 d6 c2 B4 | =A8 F6 G2 | _A2 B2 c6 =d2 e4- | e4 B4 e4 =d4 | c8 B8- | %363
w: |San- * * *||ctus, San- *||* (ctus, San- *|* ctus,|
 B4 F4 B4 A4 | G8 G8 | z4 c6 c2 c4 | B4 c4 A4 F4 | B4 z4 z8 | z4 c6 c2 c4 | B4 c4 z4 e4- | %370
w: _ San)- * *|* ctus:|Do- mi- nus|De- us Sa- ba-|oth,|Do- mi- nus|De- us, Do-|
 e2 e2 e4 =d4 e4 | c6 c2 B4 c4 |[M:3/1]"^rit." c2 B2 B8 (A4 | G8) |[M:4/2] =A16 |[Q:1/2=96] z16 | %376
w: * mi- nus De- us|Sa- ba- oth, Sa-|* * * ba-||oth.||
 z16 | z8 z4 F4 | B4 A4 _d8 | c4 B2 B4 c2 A4 | G8 z4 B4- | B2 B2 F4 A6 B2 | c4 B8 A4 | G8 z8 | %384
w: |Ple-|ni- sunt coe-|li et ter- * *|ra. glo-|* ri- a tu- *||a,|
 c6 c2 F4 A4- | A2 B2 c4 d8 |[M:3/1]"^rit." c4 B4 (e8 | d8) |[M:4/2][Q:1/2=96] c16 | z8 F8 | %390
w: glo- ri- a tu-|* * (a, glo-|ri- a tu)-||a.|O-|
 c6 G2 c4 d4 | e8 c8 | z4 F4 B6 A2 | B4 c4 d8 |"^rit." c4 c6 =d2 e4 | c16- | c16 || %397
w: san- na in ex-|cel- sis,|O- san- na|in ex- cel-|sis, in ex- cel-|sis.|_|
[Q:1/2=96] z8 A8- | A8 B8 | c16 | F4 A8 G4- | G4 F4 =E8 | z4 d4 c4 F4- | F2 GA B8 A4 | G4 F4 (A8 | %405
w: Be-|* ne-|di-|ctus qui ve-|* * nit,|qui ve- *||nit, qui ve-|
 B8) c8 | z4 G4 A6 A2 | F4 B6 A2 (A4 | G4 F4) A8- | A8 z4 c4 | d6 d2 B4 c4- | c2 B2 (B8 =A4) | %412
w: * nit|in no- mi-|ne Do- mi- *|* * ni,|_ in|no- mi- ne Do-|* mi- * *|
 B16 | z4 F4 A6 B2 | c4 A4 e8 | B4 c6 c2 d4- | d2 cB A2 B2 c4 A4 | B8 z8 | z4 B,4 F6 G2 | %419
w: ni.|O- san- na|in ex- cel-|sis, in ex- cel-||sis,|O- san- na|
 A4 F4 c6 =d2 |"^rit." e2 =d2 c2 B2 c4 A4- | A2 B2 (c6 B2 =A2 G2) | !fermata!=A16 |] %423
w: in ex- cel- *|* * * * sis, in|_ ex- cel- * * *|sis.|
"^4. Agnus Dei"[Q:1/2=88] z8 c8- | c4 G4 (B8 | A8) G8 | z4 F4 B8 | A4 F4 c8 | B4 (A6 B2 G4) | %429
w: A-|* gnus De-|* i,|qui tol-|lis pec- ca-|ta mun- * *|
 A8 z4 F4 | A4 c8 F4 | z4 B4 c4 e4- | e4 A4 c6 A2 | B2 c2 d6 c2 c4- | c4 B4 c8- | c8 z8 | %436
w: di, mi-|se- re- re,|mi- se- re-|* re no- *||* * bis.|_|
 z4 A8 A4 | (B4 E4 A8) | G8 z8 | z8 G4 A4- | A2 A2 B4 c4 A4 | d8 c8- | c8 z4 B4- | B4 A4 A4 G4 | %444
w: A- gnus|De- * *|i,|qui tol-|* lis pec- ca- ta|mun- di,|_ mi-|* se- re- re|
 F8 c8 | B6 A2 B2 c2 A4 | G8 z4 e4- | e4 d4 d4 c4 ||[M:3/1]"^rit." B6 A2 F2 G2 | A8 G4 | %450
w: no- *||bis, mi-|* se- re- re|no- * * *||
[M:4/2][Q:1/2=88] A16 |!f! c12 A4 | (d6 c2 B2 A2 G4) | c4 A6 F2 B4- | (B2 A2 G2 F2 G8) | A16 | %456
w: bis.|A- gnus|De- * * * *|i, A- gnus De-||i,|
 z4 A4 G4 E2 F2 | G8 F4 c4- | c2 BA G2 A2 B2 G2 A4 | G8 z4 d4 | c4 A2 B2 c8 | B4 c6 B2 G4 | %462
w: qui tol- lis pec-|ca- ta mun-||di, qui|tol- lis pec- ca-|ta- mun- * *|
 A4 F4 z8 | z4 G6 F2 F4- | F4 _E4 (A8 | G8) F8 | z4 c6 B2 B4- | B4 A4 d8 | c8 c8- | c8 c8 | %470
w: * di,|do- na no-|* bis pa-|* cem,|do- na no-|* bis pa-|cem, pa-|* cem,|
 z8 z4 c4- | c2 B2 B8 A4 | (d8 c8) | F16 | z4 G6 F2 F4- |"^rit." F4 E4 A8 | G8 c8 | c4 c8 A4 | %478
w: do-|* na no- bis|pa- *|cem,|do- na no-|* bis pa-|cem, do-|na no- bis|
 (c6 B2 G8) | =A16 |] %480
w: pa- * *|cem.|
V:2
!p! F8 C4 E4 | F2 G2 A6 G2 F4- | F4 =E4 F4 C4 | D4 B,4 F8 | z8 C8 | F,4 A,4 G,8 | F,4 F8 =E4 | %7
w: Ky- rie e-|lei- * * * *||* * son,|Ky-|rie e- lei-|son, Ky- ri-|
 F8 B,8 | C16 | C16 || z8 F8 | E8 D4 C4- | C2 B,2 C4 A,4 B,4 | C8 z8 | z8 z4 A4- | A4 G8 F4 | %16
w: e e-|lei-|son.|Chri-|ste e- lei-||son,|Chri-|* ste e-|
 E6 F2 G2 A2 B4- | B4 E4 E8 | z8 z4 E4 |[M:3/1] E4 =D6 C2 (C4- | C4 =B,4) |[M:4/2] C16 || z16 | %23
w: le- * * * *|* i- son,|Chri-|* ste e- lei-||son.||
 z8 A,6 A,2 |[M:3/1] G,4 C8 B,4 | C8 |[M:4/2] D6 D2 C4 F4- | F4 =E4 F4 F4 | =D4 =E4 F4 F,4 | %29
w: Ky- ri-|e e- lei-|son,|Ky- ri- e e-|* lei- son, Ky-|rie e- lei- son,|
 z8 F8 | E4 C4 =D8 | C8 z8 | A6 A2 G4 c4- | c4 B4 c8 | F6 F2 E4 A4 | A4 G4 G2 F2 E2 =D2 | %36
w: Ky-|rie e- lei-|son,|Ky- ri- e- e-|* lei- son,|Ky- ri- e e-|* le- * * * *|
 C4 F8 =E4 | F16 |][M:13/4] z26 |[M:4/2] F12 C4 | E8 D8 | C8 z4 C4 | E6 E2 A,8 | D6 C2 A,4 B,4 | %44
w: * * i-|son.||Et in|ter- ra|pax ho-|mi- ni- bus|bo- nae vo- lun-|
 C6 B,2 A,4 B,4 | G,8 F,8 | z8 z4 C2 C2 | D4 E4 F8 | C8 z4 D4 | E4 F4 D4 B,4 | C8 z8 | %51
w: ta- * * *|* tis.|Be- ne-|di- ci- mus|te. Glo-|ri- fi- ca- mus|te,|
 z4 F,4 _A,6 B,2 | C4 D4 A,4 F4 | F4 E4 F6 E2 | =D8 z4 F4- | F2 F2 G4 A6 A2 | A8 B8 | =A4 _A8 G4 | %58
w: glo- ri- fi-|ca- mus te, glo-|ri- fi- ca- mus|te. Gra-|* ti- as a- gi-|mus ti-|bi pro- pter|
 F4 E4 F2 F2 D4 | C8 F,8 | z8 z4 C4- | C2 F,2 F4 =E8 | F8 z4 F4- | F2 F2 G4 A8 | F4 F8 =E4 | %65
w: ma- gnam glo- ri- am|tu- am|glo-|* ri- am tu-|am, Do-|* mi- ne De-|us, Rex coe-|
 (F4 C4 D8) | C8 F,4 G,4 | (A,6 G,2 F,8) | G,8 C6 =D2 | E4 B,2 C2 (_D6 C2 | B,4) B,4 A,8 | %71
w: le- * *|stis, Rex coe-|le- * *|stis, De- us|Pa- ter o- mni- *|* po- tens,|
 z8 z4 E4- | E4 F4 G4 E4 | F4 A8 G4 | A4 F8 E4 | D4 B,4 z4 E4 | A4 G4 F8 | G6 G2 C4 E4- | %78
w: De-|* us Pa- ter|o- mni- po-|tens, De- us|Pa- ter o-|mni- po- tens,|Do- mi- ne Fi-|
 E4 B,4 C4 =D4 | E6 E2 A,4 F4- | F2 E2 (E8 =D4) | E4 F8 F4 | F4 E4 z8 | z4 F6 E2 E4- | %84
w: * li u- ni-|ge- ni- te Je-|* su Chri- *|ste, Je- su|Chri- ste,|Je- su Chri-|
 (E4 =D4) E8 | z8 z4 G4- | G2 F2 (F8 =E4) |[M:3/1] F2 F4 _E2 E8 C6 =D2 |[M:4/2] !fermata!=E16 || %89
w: * * ste,|Je-|* su Chri- *|ste, Je- su Chri- * *|ste.|
[M:4/2] F6 F2 C4 D4- | D4 C4 _E4 F4 | A8 G8 | C8 C4 F4- | F4 F4 z4 F4- | F2 F2 E4 D4 C4 | %95
w: Do- mi- ne De-|* us A- gnus|De- i,|A- gnus De-|* i, Fi-|* li- us Pa- *|
 E6 FG A4 G4 | F8 z4 B4- | B2 B2 A4 G4 F4 | A4 G4 F8 ||[M:3/1] E4 F8 G4 |[M:4/2] A8 G8 | z4 E4 A8 | %102
w: |tris, Fi-|* li- us Pa- *||tris, Pa- *|* tris:|Qui tol-|
 F4 A4 G4 F4 | E3 D C2 B,2 A,2 B,2 C4 | B,2 C2 D4 C4 B,4 | A,8 z8 | z4 F4- F4 E4 | D4 C4 F4 G4 | %108
w: lis pec- ca- ta|mun- * * * * * *||di:|mi- * se-|re- re no- *|
 A6 G2 F2 E2 D4 | E8 A6 A2 | G4 C4 E6 DE | F2 G2 A8 G4 | A16 | z16 | z16 | z16 | z16 | z16 | z16 | %119
w: |bis, mi- se-|re- re- no- * *||bis.|||||||
 z16 | z16 | z16 | z16 | z16 | z16 | z16 | z4 E4 A8 | F4 F4 B6 B2 | G12 A4- | A2 G2 F4 G8 | E8 z8 | %131
w: |||||||Qui se-|des ad dex- te-|ram Pa-||tris:|
 F2 G2 A4 G4 B4- | B2 F2 A4 G4 F4- | F2 E2 C4 E4 A,2 B,2 | C2 D2 (E8 =D4) | E16- | E8 z8 | %137
w: mi- se- re- re no-||* * * bis, mi- se-|re- re no- *|bis.|_|
 B,12 C4 | B,4 A,4 G,4 E,4 | (A,4 G,4) F,8 | z4 B,4 C6 B,2 | A,4 F,4 B,8 | z4 G4 A6 G2 | F4 F4 G8 | %144
w: Quo- ni-|am tu so- lus|San- * ctus,|tu so- lus|Do- mi- nus,|tu so- lus|Do- mi- nus,|
 z16 | z16 | z8 z4 E4- | E4 G6 G2 =A4 | B6 (A2 G2 F2 E4) | =D4 E6 D2 C4- | C4 G,4 C6 =D2 | %151
w: ||tu|_ so- lus Al-|tis- si- * * *|mus, Je- su Chri-||
 =E8 z4 _E4 | F4 G4 A6 A2 | G4 A4 F6 F2 | E4 E4 C4 E4- | (E4 =D4) E8 | z8 z4 E4 | C6 C2 A,8 | %158
w: ste, cum|San- cto Spi- ri-|tu in glo- ri-|a De- i Pa-|* * tris,|in|glo- ri- a|
 E6 E2 (F4 A4) | G4 z8 A4 | F6 F2 =E4 G4- | G2 F2 =E2 =D2 E2 C2 F4 | F4 =E2 =D2 E2 G2 F4- | %163
w: De- i Pa- *|tris, in|glo- ri- a De-|* i Pa- * * * *||
 F4 =E4 F8- | F8 z4 F4- | F2 E2 D2 C2 D4 B,4 | F16 |[M:7/4] z14 |[M:4/2] F8 F4 E4 | F4 D4 (C6 D2) | %170
w: * * tris.|* A-||men.||Pa- trem o-|mni po- ten- *|
 E8 z4 B,4 | D6 E2 (F2 G2 A4) | A4 G4 (C4 F4) | E4 A4 A4 G4 | G4 F4 E4 F4 | D8 C8- | C8 z4 F4- | %177
w: tem, fa-|cto- rem coe- * *|li et ter- *|rae, coe- li et|_ ter- * *|* rae,|* vi-|
 F4 F4 A6 A2 | E4 E4- E2 (D2 C4) | B,8 z8 | z4 C4- C4 B,4 | D4 C2 C2- C2 (B,A, B,4) | %182
w: * si- bi- li-|um o- * mni- *|um|et * in-|vi- si- bi- * li- * *|
 C4 c4- c2 F2 A4- | A4 G4 A6 A2 | F8 A4 G4 | F4 B,4 z2 A4 A2 | G4 F4- F4 E4 | F4 G4 A6 A2 | %188
w: um. Et * in u-|* num Do- mi-|num Je- sum|Chri- stum, Fi- li-|um De- * i|u- ni- ge- ni-|
 G8 F8- | F4 F4 E8- | E4 C4 C8 | z4 C8 C4 | E8 D4 C4- | C4 B,4 E4 F4 | G6 G2 E4 A4- | A4 F4 G8 | %196
w: tum, u-|* ni- ge-|* ni- tum:|et ex|Pa- tre na-|* tum an- te|o- mni- a sae-|* cu- la.|
 E8 C4 A,4 | _D8 C8 | z8 F8 | E4 (A4 G4 F4) | F16 | z4 F4 D4 B,4 | F6 A2 G4 (F4- | F2 =E=D E4) F8 | %204
w: De- um de|De- o,|De-|um ve- * *|num|de De- o|ve- * ro, ve-|* * * * ro,|
 z8 A6 G2 | A4 F4 _E4 A,4 | z8 C8 | A,4 C4- C4 D4 | E4 A,4 D4 C4 | z4 F4- F2 E2 F2 G2 | A4 E4 F8 | %211
w: ge- ni-|tum non fa- ctum,|con-|sub- stan- * ti-|a- lem Pa- tri,|con- * sub- stan- ti-|a- lem Pa-|
 E16 | z4 F4 G4 A4- | A2 G2 _E4 F4 D4 | C8 F4 G4 | B6 B2 A4 G4- | G4 F4 G4 C4- | C4 D4 E6 D2 | %218
w: tri,|per quem o-|* mni- a fa- cta|sunt, per quem|o- mni- a fa-|* cta sunt, per|* quem o- mni-|
 C4 B,8 A,4 | !fermata!G,16 || z16 | z16 | z16 | z16 | z16 | z16 | z16 | z16 | z16 | z8 z4 B,4 | %230
w: a fa- cta|sunt.||||||||||Et|
 C4 B,4 C6 D2 | C8 z8 | z4 D4 C6 D2 | E4 F4- F2 E2 D4 | C8 F,8 | z4 F4- F4 E4 | F4 A4 G6 G2 | %237
w: in- car- na- tus|est|de Spi- ri-|tu San- * * *|* cto|ex _ Ma-|ri- a vir- gi-|
 F4 E4 G4 F4 | (A6 G2 F4) G4 | F4 E4- E2 F2 G4- | G4 F4- F4 =E4 | F4 F,4 C6 B,2 | %242
w: ne, et ho- mo|fa- * * ctus|est, fa- * * *|* * * ctus|est, et ho- mo|
 G,4 B,4 A,4 A,4- | A,4 F,4 G,8 | z4!p! _E4- E4 E4 | E4 E4 E6 E2 | E4 C4 =D8 | C4 C4 C6 C2 | %248
w: fa- ctus est, fa-|* ctus est.|Cru- * ci-|fi- xus e- ti-|am pro no-|bis sub Pon- ti-|
 C4 _E4 =D8 | E8 B,6 _D2 | C4 A,4 C6 C2 | F,4 z2 F,2 A,4 D4 | C8 z4!f! C4 | =D4 =E4 F4 A4 | %254
w: o Pi- la-|to pas- sus|et se- pul- tus|est, se- pul- tus|est. Et|re- sur- re- xit|
 G6 G2 F8 | (_E4 C4 B,4) C4 | A6 A2 G4 F4 | =E8 z8 | z8 z4 C4 | E4 C2 E2 (D2 C2 D4) | C16 | %261
w: ter- ti- a|di- * * e,|ter- ti- a di-|e|se-|cun- dum scrip- tu- * *|ras.|
 D6 E2 F4 G2 A2 | (B4 c4) d4 B4 | F4 G4 E2 G2 F4 | B,3 C D3 E F2 G2 A2 G2 | F8 E8 | z16 | %267
w: Et a- scen- dit in|coe- * lum, se-|det ad dex- te- ram|Pa- * * * * * * *|* tris,||
 F4 B,4 C2 E3 E E2 | F2 A2 G3 F E2 FG A2 G2 | (F4 E4) C8 | C8 z4 C4 | A6 A2 G4 A4 | %272
w: se- det ad dex- te- ram|Pa- * * * * * * * *|tris, _ Pa-|tris, et|i- te- rum ven-|
 F4 E4 A4 z2 E2 | G6 G2 F4 A4- | A2 (G2 A4) F8 | E8 z4 A,4 | E6 E2 D4 C4- | C2 (B,2 C4) A,8 | %278
w: tu- rus est cum|glo- ri- a ju-|* di- * ca-|re, cum|glo- ri- a ju-|* di- * ca-|
 G,4 C4 F4 F4 | A6 A2 E8 | z8 F6 G2 | A12 A,4 | z4 F4- F2 G2 A4- | A4 E4 z4 B4 | G4 A4 F4 E4- | %285
w: re vi- vos et|mor- tu- os,|cu- jus|re- gni,|cu- * jus re-|* gni non|e- rit fi- *|
 E2 F2 G4- G4 F2 G2 | A4 F4 E8 | C4 D8 C4 | z4 F8 F4 | G6 G2 A4 A4- | (A4 G4) A8 | F6 F2 G4 E4 | %292
w: |nis, non e-|rit fi- nis.|Et in|Spi- ri- tum San-|* * ctum|Do- mi- num et|
 F4 G2 B2 A4 F4 | F4 E2 D2 (C2 B,2 A,4) | E8 G6 F2 | (G2 A2 B4) E4 A4 | G4 F8 E4 | C8 E4 F3 G | %298
w: vi- vi- fi- can- tem,|vi- vi- fi- can- * *|tem, qui ex|Pa- * * tre Fi-|li- o- que|pro- ce- * *|
 A2 F2 G2 F2 E6 B,2 | (C3 D E4) E8 | z4 C8 E4 | F8 E8 | F4 A8 G4 | A4 A8 F4 | G4 E4 F8 | E8 z4 B4 | %306
w: * * * * dit, pro-|ce- * * dit,|qui cum|Pa- tre|et Fi- li-|o si- mul|a- do- ra-|tur et|
 A4 F4 F6 G2 | A8 G4 A4 | G6 E2 F6 G2 | A6 B2 c6 BA | G2 F2 G4 =A8 | z4 _A8 A4 | F4 A4 E8 | %313
w: con- glo- ri- fi-|ca- tur, et|con- glo- ri- fi-|ca- * * * *|* * * tur,|qui lo-|cu- tus est|
 A8 E4 F4 |[M:3/1] F4 C4 E6 B,2 | E8 |[M:4/2] !fermata!E16 || z8 A8 | G4 A4 z4 A4- | %319
w: per Pro- phe-|* tas, per Pro-|phe-|tas.|Et|u- nam san-|
 (A4 G4) A4 E4 | F6 A2 G4 G4 | F6 E2 E8 | z4 F4 E4 A4 | G6 G2 F8 | A4 F8 =E4 | F16 | z4 B,4 E6 E2 | %327
w: * * ctam ca-|tho- li- cam, ca-|tho- li- cam|et a- po-|sto- li- cam|Ec- cle- si-|am.|Con- fi- te-|
 C4 D8 C4- | C2 B,2 (B,8 =A,4) | B,8 F8- | F4 C8 E4- | E2 F2 G6 F2 A4- | A2 G2 (F8 =E2 =D2) | %333
w: or u- num|* bap- tis- *|ma in|_ re- mis-|* si- o- nem pec-|* ca- to- * *|
 =E8 z8 | z16 | _E8 C4 E4- | E4 A,4 D3 E F2 G2 | A4 E4 A6 G2 || F8 E8- | E8 z4 D4 | %340
w: rum:||Et ex- spe-|* cto re- sur- re- cti-|o- nem mor- tu-|o- rum,|* et|
 C4 B,2 C2 D4 E4 | F6 G2 A8 | z4 A,4 E4 B,2 D2 | C4 A,4 B,6 B,2 | A,8 B,4 B4 | E2 E2 A8 G4 | %346
w: vi- tam ven- tu- ri|sae- cu- li,|et vi- tam ven-|tu- ri sae- cu-|li, et vi-|tam ven- tu- ri|
 A4 F4 E4 z4 | z4 E4 A4 F2 A2 | G4 C4 F6 F2 | =E4 F4 F2 _E2 D2 CB, | A,2 F,2 F8 =E4 | %351
w: sae- cu- li,|et vi- tam ven-|tu- ri sae- cu-|li. A- * * * * *||
 !fermata!F16 |[M:4/2] z16 | C6 =D2 E2 F2 G4- | G2 F2 F8 =E4 | F8 C6 =D2 | E4 F4 G4 A4- | %357
w: men.||San- * * * *||ctus, San- *||
 A2 G2 F2 =E2 F6 G2 | A4 D2 E2 F8 | F8 z8 | z8 C6 =D2 | E2 F2 G6 A2 B4 | A4 G8 B,4 | %363
w: ||ctus,|San- *||(ctus, San)- *|
 E4 =D2 E2 F6 E2 | =D8 =E8 | z16 | z4 A6 A2 A4 | G4 A4 F6 F2 | E16 | z4 A6 A2 A4 | G4 A4 F4 (G4 | %371
w: |* ctus:||Do- mi- nus|De- us Sa- ba-|oth,|Do- mi- nus|De- us Sa- ba-|
 E4 C4) G8 |[M:3/1] z4 G6 F2 (F4- | F4 =E4) |[M:4/2] F16 | z4 C4 F4 E4 | A8 G4 F2 F2- | %377
w: * * oth,|Sa- ba- *||oth.|Ple- ni- sunt|coe- li et ter-|
 F2 G2 E4 =D8 | B,4 F4 _D4 F4- | F2 E2 E8 C3 =D | E2 B,2 C4 B,8 | z4 _D6 D2 C4 | E3 F G6 F2 F4- | %383
w: * * * ra,|ple- ni- sunt coe-|* li et ter- *|* * * ra|glo- ri- a|tu- * * * *|
 F4 =E4 F8 | z16 | z4 F6 F2 B,4 |[M:3/1] E6 F2 G4 A4- | A4 G4 |[M:4/2] A16 | z16 | G8 A6 F2 | %391
w: * * a,||glo- ri- a|tu- * * *||a.||O- san- na|
 G2 A2 (B8 =A4) | B4 B,2 C2 (D2 E2 F4) | B,4 z4 z4 B,4 | F6 E2 F4 G4 | A8 G8- | G16 || F12 C4 | %398
w: in ex- cel- *|sis, in ex- cel- * *|sis, O-|san- na in ex-|cel- sis.|_|Be- ne-|
 D4 C4 B,4 E4- | (E4 F4) C8 | z16 | z4 A4 G4 C4- | C2 DE F6 E2 D4 | C4 B,4 C8 | C4 z4 z4 A,4 | %405
w: di- ctus qui ve-|* * nit,||qui ve- *||nit, qui ve-|nit in|
 D6 D2 C4 F4- | F4 =E4 F4 F4- | F4 B,4 D4 C4 | B,6 B,2 A,8 | z4 E4 A6 A2 | F4 B6 A2 G4 | F12 F4 | %412
w: no- mi- ne Do-|* mi- ni, Do-||* mi- ni,|in no- mi-|ne Do- * *|* mi-|
 F8 z4 B,4 | D6 E2 F4 D4 | A8 G4 G4- | G4 G4 (A4 F4) | A8 z4 F4 | F6 G2 A4 F4 | B8 A4 F4- | %419
w: ni. O-|san- na in ex-|cel- sis, in|_ ex- cel- *|sis, O-|san- na in ex-|cel- sis, in|
 F2 G2 (A2 G2 F2 E2) F4 | z4 A,8 F,4 | (F8 =E8) | !fermata!F16 |] F12 C4 | (E8 D8) | C8 z4 E4 | %426
w: _ ex- cel- * * * sis,|in ex-|cel- *|sis.|A- gnus|De- *|i, qui|
 A8 G4 E4 | F12 E4 | (D6 C2) B,8 | z4 A,4 C4 D4- | D4 A,4 C4 D4 | E12 C4 | E4 F4 A8 | G4 F6 E2 C4 | %434
w: tol- lis pec-|ca- ta|mun- * di,|mi- se- re-|* re, mi- se-|re- re,|mi- se- re-|re no- * *|
 D8 C8- | C8 z8 | z16 | z16 | z16 | z16 | z16 | z16 | z16 | z16 | z16 | z16 | z16 | z16 || %448
w: * bis.|_|||||||||||||
[M:3/1] z12 | z12 |[M:4/2] z8!f! E8- | E4 C4 (F6 E2 | D2 C2 B,4) E8 | C6 A,2 (D6 C2 | B,16) | %455
w: ||A-|* gnus De- *|* * * i,|A- gnus De- *||
 A,8 z4 F4 | E4 C2 D2 E6 A,2 | E8 C4 A4 | G4 E2 F2 G4 C2 F2- | (F2 =E=D E4) F8 | z8 z4 A4 | %461
w: i, qui|tol- lis pec- ca- ta|mun- di, qui|tol- lis pec- ca- ta- mun-|* * * * di,|qui|
 G4 E2 F2 G8 | F4 (A6 G2 F4) | =E8 z8 | z4 G6 F2 F4- | F4 E4 (D8 | C8) F8 | z4 F6 B,2 F4- | %468
w: tol- lis pec- ca-|ta- mun- * *|di,|do- na no-|* bis pa-|* cem,|do- na no-|
 F4 E4 A8 | G4 G6 F2 F4- | F4 =E4 F8- | F8 F8 | z4 F6 _E2 E4- | E4 D4 C8 | B,12 A,4 | %475
w: * bis pa-|cem, do- na no-|* bis pa-|* cem,|do- na no-|* bis pa-||
 G,4 G6 F2 F4- | F4 E4 A8 | G4 G6 F2 F4- | F4 =E2 =D2 E2 F4 E2 | F16 |] %480
w: cem, do- na no-|* bis pa-|cem, do- na no-|* bis pa- * * *|cem.|
V:3
 z16 | z16 |!p! c8 F4 A4 | B2 c2 d6 c2 B4- | B4 A8 G4 | A4 F4 z4 c4- | c4 F4 A4 c4- | %7
w: ||Ky- rie e-|lei- * * * *||* son, Ky-|* rie e- lei-|
 c2 B2 c2 =d2 e2 f2 g4- | g2 f2 f8 =e4 | f16 || c8 B4 A4 | G8 F8 | z8 z4 f4- | f4 e8 d4 | %14
w: ||son.|Chri- ste e-|lei- son,|Chri-|* ste e-|
 c6 B2 A2 G2 F4 | c8 z4 A4- | A4 G8 F4 | G4 C4 E8 | z4 c8 B4 |[M:3/1] c4 G4 e8 | =d8 | %21
w: lei- * * * *|son, Chri-|* ste e-|le- i- son,|Chri- ste|e- lei- *||
[M:4/2] _f16 || f8 e4 c4 | d8 c8 |[M:3/1] z16 | z8 |[M:4/2] B8 A4 F4 | G8 F8 | z8 c6 c2 | %29
w: son.|Ky- rie e-|lei- son,|||Ky- rie e-|lei- son,|Ky- ri-|
 B4 e4- e4 =d4 | e8 z4 g4- | g2 g2 f4 g4 e4 | f8 z8 | F6 F2 E4 A4- | A4 B4 c6 B2 | %35
w: e e- * lei|son, Ky-|* ri- e e- lei-|son,|Ky- ri- e e-|* lei- * *|
 c2 d2 e4 e2 d2 c2 B2 | A2 G2 F4 c8 | c16 |] %38
w: ||son.|
[M:13/4] E2 F2 A2 A2 A2 G2 A2 B2 G2 B2 A2 G2 !fermata!G2 |[M:4/2] z16 | z16 | z16 | z16 | z16 | %44
w: Glo- * * ri- a in ex- cel- sis De- * * o||||||
 z16 | z8 z4 c4 | d4 e4 f8 | z8 z4 F2 F2 | G4 __B4 _B8 | z8 z4 F4 | G4 __B4 _B4 d4 | c8 z4 F4 | %52
w: |Lau-|da- mus te.|A- do-|ra- mus te.|Glo-|ri- fi- ca- mus|te, glo-|
 A4 B4 F4 (d4 | c4 B4 c8) | B8 z4 d4- | d2 d2 e4 e6 e2 | f8 f8 | f8 z8 | z8 z4 f4- | f4 e4 d4 c4 | %60
w: ri- fi- ca- mus|_ _ _|te. Gra-|* ti- as a- gi-|mus ti-|bi|pro-|* pter ma- gnam|
 A2 A2 B4 c8- | (c4 F4) G8 | z4 c6 c2 d4 | B8 A8 | z16 | z4 F8 G4 | (A6 B2) c8 | z4 c8 B4 | %68
w: glo- ri- am tu-|* * am.|Do- mi- ne|De- us,||Rex coe-|le- * stis,|rex coe-|
 (c4 G4 A8) | G8 z8 | z16 | A8 B8 | c4 A4 (B4 c4) | (d6 c2 B4) B4 | A8 z8 | B4 e6 (d2 c2 B2 | %76
w: le- * *|stis,||De- us|Pa- ter o- *|mni- * * po-|tens,|o- mni- po- * *|
 A4) B4 z4 B4- | B2 B2 G4 A8 | E8 z8 | c6 c2 F8 | A4 G4 A4 B4 | c6 c2 F4 d4- | d2 A2 (c4 B8) | %83
w: * tens. Do-|* mi- ne Fi-|li,|Do- mi- ne|Fi- li u- ni-|ge- ni- te Je-|* su Chri- *|
 A8 c6 G2 | (A4 F4) C8 | z4 c6 B2 B4- | (B4 A4 G8) |[M:3/1] F4 z4 c6 B2 A8 |[M:4/2] !fermata!G16 || %89
w: ste, Je- su|Chri- * ste,|Je- su Chri-||ste, Je- su Chri-|ste.|
[M:4/2] z16 | z16 | z4 c6 c2 G4 | A4 F4 A8 | B4 d6 c2 B2 A2 | G2 F2 G4 F8 | z8 z4 c4- | %96
w: ||Do- mi- ne|De- us, A-|gnus De- * * *|* * * i,|Fi-|
 c2 c2 B4 (A4 G4) | B4 e6 e2 d4 | c4 B4 d4 c4 ||[M:3/1] B4 A2 B2 c2 d2 e4 |[M:4/2] e4 __e4 _e8- | %101
w: * li- us Pa- *|tris, Pa- tris, Fi-|li- * * *|us Pa- * * * *|* * tris:|
 e8 z8 | z16 | z16 | z16 | z16 | z16 | z16 | z16 | z16 | z8 z8 | z16 | z4 e4 f4 c4 | d4 c8 A4 | %114
w: |||||||||||Qui tol- lis|pec- ca- ta|
 e8 c8 | z4 d4 c4 B4 | e8 __e8 | z8 z4 e4- | e2 e2 B4 c4 A4 | c6 d2 e8 | c4 d6 c2 A2 B2 | %121
w: mun- di,|pec- ca- ta|mun- di:|sus-|* ci- pe de- pre-|ca- ti- o-|nem no- * * *|
 c2 A2 B4 c4 d4 | e4 f6 f2 e4 | c4 e4 a4 f4 | a6 g2 e2 f2 e2 d2 | c2 e2 d2 c2 B2 A2 B4 | c8 z4 c4 | %127
w: |stram, sus- ci- pe|de- pre- ca- ti-|o- nem no- * * *||stram, Qui|
 __e8 _e4 B4 | e6 e2 c8 | A4 B6 A2 G4 | c8 B4 B2 c2 | d4 c4 e6 B2 | d4 c4 B8 | A4 A2 B2 c4 f4 | %134
w: se- des ad|dex- te- ram|Pa- * * *|* tris: mi- se-|re- re no- *||bis, mi- se- re- re|
 (e4 g4) f8 | z4 g8 a4 | g4 g4 f4 e2 e2- | (e2 __ec e4) _e8 | z16 | z8 f8 | g6 f2 e4 c4 | %141
w: no- * bis.|Quo- ni-|am tu so- lus San-|* * * * ctus,||tu|so- lus Do- mi-|
 f8 z4 __e4 | e6 __e2 c4 c4 | __e8 _e8 | f6 f2 g4 a4- | (a2 g2) f4 e8 | f4 g6 (f2 g4) | %147
w: nus, tu|so- lus Do- mi-|nus, tu|so- lus Al- tis-|* * si- mus,|Al- tis- si- *|
 c4 __e4 _e6 e2 | f4 g8 g4 | g8 z8 | c6 B2 A8 | G8 z4 c4 | d4 B4 A6 A2 | e8 z8 | z8 e4 c4- | %155
w: mus, tu so- lus|Al- tis- si-|mus,|Je- su Chri-|ste, cum|San- cto Spi- ri-|tu|in glo-|
 c2 c2 A4 B4 G4 | c8 B8 | z4 e4 c6 c2 | A4 c8 A4 | (e4 c4) c8 | z8 z4 c4 | A6 A2 G4 B4 | %162
w: * ri- a De- i|Pa- tris,|in glo- ri-|a De- i|Pa- * tris,|in|glo- ri- a De-|
 B2 A2 G2 F2 G2 E2 A4 | G8 F8 | (c4 d4 B8) | F8 z4 (d4- | d4 c2 B2) !fermata!c8 | %167
w: * * * * * * i|Pa- tris.|A- * *|men. A-|* * * men.|
[M:7/4] e2 c2 d2 B2 c2 e2 f2 |[M:4/2] z16 | z16 | z16 | z16 | z8 z4 F4 | A6 B2 (c2 d2 e4) | %174
w: Cre- do in u- num De- um|||||fa-|cto- rem coe- * *|
 e4 d4 c4 B2 A2 | B2 c2 B4 A8 | z4 F4- F4 F4 | A6 A2 A4 F3 G | A2 B2 c4 B4 e4- | e4 d4 c4 B4 | %180
w: li et ter- * *|* * * rae,|vi- * si-|bi- li- um o- mni-|* * * um et|* in- vi- si-|
 A6 A2 G8 | B6 A2 F4 F4 | A4 G4 F4 c4- | c2 A2 e4- e2 c2 e4- | e4 d4 e8 | z4 f4- f4 e4 | %186
w: bi- li- um,|et in- vi- si-|bi- li- um. Et|* in u- * num Do-|* mi- num|Je- * sum|
 z4 (d2 e2 f2 g2 a4-) | a4 e4 z8 | e6 e2 d4 c4- | c4 B4 c6 B2 | G4 A4 G8 | z4 A8 A4 | B4 c4 A8 | %193
w: Chri- * * * *|* stum,|Fi- li- um De-|* i u- ni-|ge- ni- tum:|et ex|Pa- tre na-|
 G8 c4 F2 B2- | B2 B2 G4 c6 B2 | c4 __e4 _e8 | z16 | z4 f8 e4 | d4 c8 B4 | c8 z4 B4 | %200
w: tum an- te o-|* mni- a sae- *|* cu- la.||Lu- men|de lu- mi-|ne, de|
 F4 A4 (B2 c2 d4-) | d4 c4 B8 | A8 z8 | z8 d6 c2 | d4 e4 f8 | F8 c6 B2 | c4 d4 e8- | e8 A8 | %208
w: De- o ve- * *|* ro, ve-|ro,|ge- ni-|tum non fa-|ctum, con- sub-|stan- ti- a-|* lem|
 c8 f6 e2 | c8 d8 | e8 z4 A4 | B4 c4- c2 B2 G4 | A4 F4 _F4 z4 | z16 | z4 c4 d4 e4- | %215
w: Pa- * *||tri, per|quem o- * mni- a|fa- cta sunt,||per quem o-|
 e2 d2 B4 (c6 B2 | A2 G2) A4 B4 z4 | e4 f4 g6 f2 | e8 c6 =d2 | !fermata!=e16 || z8 e8 | %221
w: * mni- a fa- *|* * cta sunt,|per quem o- mni-|a fa- cta|sunt.|Qui|
 e4 d4 e4 f4- | f2 e2 c4 z4 e4 | c4 A4 c8 | A4 F4 G8 | F16 | z4 A4 F8 | E8 z8 | B4 f6 e2 e4- | %229
w: pro- pter nos ho-|* mi- nes et|pro- pter no-|stram sa- lu-|tem|de- scen-|dit|de- coe- * *|
 e2 __ec e4 _e8- | e8 z8 | z4 A4 e4 c4 | d6 f2 e8 | z4 B4 d6 e2 | f4 a4- a2 g2 f4- | f2 e2 d4 c8 | %236
w: * * * * lis:||Et in- car-|na- tus est|de Spi- ri-|tu San- * * *|* * * cto|
 z4 c4- c4 B4 | d4 c4 B6 B2 | A8 z4 B4 | d4 c4 (e6 d2 | c2 B2) A4 c4 z2 c2 | d4 c4 e6 d2 | %242
w: ex _ Ma-|ri- a vir- gi-|ne, et|ho- mo fa- *|* * ctus est, et|ho- mo fa- *|
 c2 B2 d4- d2 c2 c4- | c4 B4 c8 | z4!p! c4- c4 c4 | A4 G4 A6 G2 | E4 A4 G8 | C4 F4 _F6 =F2 | %248
w: |* ctus est.|Cru- * ci-|fi- xus e- ti-|am pro no-|bis sub Pon- ti-|
 C4 c4 B8 | E8 z8 | A6 G2 F4 A4 | (d4 c8) B4 | __B8 z8 | z8 z4!f! c4 | __e4 _f4 =f4 a4 | %255
w: o Pi- la-|to|pas- sus et se-|pul- * tus|est.|Et|re- sur- re- xit|
 g6 e2 f4 e4- | e2 e2 c4 (e4 c4) | c16 | z4 G4 c4 A2 F2 | c6 G2 A4 F3 G | A2 B2 G4 __B4 B4 | %261
w: ter- ti- a, ter-|* ti- a di- *|e|se- cun- dum scrip-|tu- * * * *|* * * ras, scrip-|
 B8 F8 | z8 B6 c2 | d4 e2 f2 (g4 __b4) | b4 f4 B4 c4 | d6 d2 c3 B G2 A2 | B2 d2 c4 F8 | z8 z4 c4 | %268
w: tu- ras.|Et a-|scen- dit in coe- *|lum, se- det ad|dex- te- ram Pa- * *|* * * tris,|se-|
 F4 G4 A3 G F2 (E2 | D4 E4) A8 | z4 c4 e6 e2 | d4 c4 B4 (A4 | B4 c4) A8 | z8 z4 A4 | e6 e2 d4 c4- | %275
w: det ad dex- te- ram Pa-|* * tris,|et i- te-|rum ven- tu- rus|_ _ est|cum|glo- ri- a ju-|
 c2 (B2 c4) A8 | G8 z4 A4 | e4 e4 f6 f2 | e4 A4 B6 B2 | A8 z4 A4- | A2 B2 c4- c4 F4 | z4 F4 f6 e2 | %282
w: * di- * ca-|re vi-|vos et mor- tu-|os, et mor- tu-|os, cu-|* jus re- * gni|non e- rit|
 d4 B4 z8 | z4 c4- c2 d2 e4- | e4 A4- A4 c4 | A4 G4 B8 | F4 d4 c8 | A4 f8 e4 | z4 d8 c4 | %289
w: fi- nis,|cu- * jus re-|* gni * non|e- rit fi-|nis, non e-|rit fi- nis.|Et in|
 e6 e2 e8 | (f4 e2 d2) e4 e4- | e4 __e4 _e8 | z4 e4 A4 B2 d2 | c4 B4 z4 c4- | c2 B2 (c2 d2 e4) B4 | %295
w: Spi- ri- tum|San- * * ctum Do-|* mi- num|et vi- vi- fi-|can- tem, qui|_ ex Pa- * * tre|
 e4 d4 c8- | c4 A4 z4 A4 | (A3 B c2 A2) B4 d4 | c4 B6 A2 G4 | (A3 B c2 A2) B8 | z4 A8 c4 | d8 c8 | %302
w: Fi- li- o-|* que pro-|ce- * * * dit, Fi-|li- o- que pro-|ce- * * * dit,|qui cum|Pa- tre|
 z4 A4 d4 e4 | A2 A4 B2 c4 d4 | e6 B2 d8 | c8 z8 | z4 z2 f2 d4 B4 | c3 d e8 A4 | z4 e4 d4 B4 | %309
w: et Fi- li-|o si- mul a- do-|ra- * *|tur|et con- glo-|ri- fi- ca- tur,|et con- glo-|
 A3 B c6 F2 f4- | f4 _f4 =f8 | z4 e8 c4 | d4 c4 c8 | z8 z4 d4 |[M:3/1] d4 A4 c6 d2 | c4 B4 | %316
w: ri- fi- ca- * *|* * tur,|qui lo-|cu- tus est|per|* Pro- phe- *||
[M:4/2] !fermata!c16 || z8 e8 | e4 e4 z4 c4- | (c2 d2 e4) c4 c4 | B6 A2 e4 B4 | d6 c2 B4 e4 | %322
w: tas.|Et|u- nam san-|* * * ctam ca-|tho- li- cam, ca-|tho- li- cam et|
 c4 d4 (c2 d2 e4-) | e2 e2 B8 c4 | (f6 g2 a4) g4 | f8 z4 __e4 | e6 e2 B4 c4- | c4 F4 A8 | d8 c8 | %329
w: a- po- sto- * *|* li- cam Ec-|cle- * * si-|am. Con-|fi- te- or u-|* num ba-|ptis- ma|
 B4 B4 d6 e2 | f8 e4 c4- | c4 B4 d4 c2 B2 | A6 B2 c8 | c4 c4 d8 | B8 A6 B2 | c2 d2 e8 A4 | %336
w: in re- mis- si-|o- nem pec-|* ca- to- * *|* * rum:|Et ex- spe-|cto re- sur-|re- cti- o- nem,|
 c3 d e2 c2 f8- | f4 c4 z4 A4 || A2 B2 (d8 c4 | B8) A8 | z16 | z4 d4 e4 d2 e2 | f2 g2 a8 g4 | %343
w: re- sur- re- cti- o-|* nem mor-|* tu- o- *|* rum,||et vi- tam ven-|tu- ri sae- cu-|
 a8 z8 | z4 c4 e4 B2 d2 | c4 A4 B6 B2 | A8 z4 A4 | e4 c2 e2 d4 c4- | c4 A4- A4 F4 | G4 A4 A4 B4 | %350
w: li,|et vi- tam ven-|tu- ri sae- cu-|li, et|vi- tam ven- tu- ri|* sae- * cu-|li. A- * *|
 c6 BA G2 C2 c4 | !fermata!c16 |[M:4/2] z8 F6 G2 | A4 B4 c8- | c4 B2 A2 B4 c4 | c8 z8 | z8 z4 F4- | %357
w: |men.|San- *|||ctus,|San-|
 F2 G2 A2 B2 c4 d4 | c4 B4 d8 | c16 | F6 G2 A2 B2 c4- | c2 __e2 _e8 B4 | e12 __e4 | %363
w: ||ctus,|San- * * * *|* * * (ctus,|San)- *|
 B6 c2 __e2 c2 c4- | c4 _c4 =c8- | c8 z4 e4- | e2 e2 e4 f4 __e4 | e8 (A4 B4) | c8 z4 e4- | %369
w: |* * ctus:|_ Do-|* mi- nus De- us|Sa- ba- *|oth, Do-|
 e2 e2 e4 f4 e4 | z16 | z4 e6 e2 e4 |[M:3/1] __e4 _e4 c8- | c4 c4 |[M:4/2] c16 | A12 A4- | %376
w: * mi- nus De- us,||Do- mi- nus|De- us Sa-|* ba-|oth.|Ple- ni|
 A4 F4 B8- | (B4 c4) B4 B4 | d12 D4 | A4 G4 E4 F4 | E16 | B6 B2 F4 A4- | (A4 B4) c8 | %383
w: _ sunt coe-|* * li et|ter- *||ra|glo- ri- a tu-|* * a,|
 c6 c2 F4 A4- | A2 B2 c4 d6 c2 | d4 A4 B8 |[M:3/1] E4 e6 d2 c4 | B8 |[M:4/2] A8 z4 c4 | %389
w: glo- ri- a tu-|||a, glo- ri- a|tu-|a. O-|
 e6 c2 d2 e2 f4- | (f4 _f4) =f8 | e4 e4 f6 e2 | d3 B d2 c2 B4 F4 | f6 e2 f4 g4 | a8 A4 c4- | %395
w: san- na in ex- cel-|* * sis,|in ex- cel- *|* * * * sis, O-|san- na in ex-|cel- sis, in|
 c2 F2 (f8 _f2 __e2) | _f16 || z16 | z16 | A16- | A8 B8 | c16 | F16 | z16 | z4 d4 c4 F4- | %405
w: _ ex- cel- * *|sis.|||Be-|* ne-|di-|ctus||qui ve- *|
 F2 GA B8 A4 | G8 z4 c4 | d6 d2 B4 e4- | e2 d2 (d8 c2 B2) | c8 c4 f4- | f2 f2 d8 e4- | %411
w: |nit in|no- mi- ne Do-|* mi- * * *|ni, in no-|* mi- ne Do-|
 (e4 d4 c6) c2 | __e4 B4 d6 c2 | B4 B4 F8 | z4 F4 c6 d2 | e4 c4 f8- | f4 c4 z2 c4 c2 | %417
w: * * * mi-|ni, Do- * *|* mi- ni.|O- san- na|in ex- cel-|* sis, in ex-|
 d6 cB A2 B2 c2 A2 | G8 F4 d4 | c8 F4 c4- | c2 __e2 _e4 c4 f4- | f2 F2 A2 B2 c8 | !fermata!c16 |] %423
w: cel- * * * * * *||sis, O- san-|* na in ex- cel-||sis.|
 z16 | z16 | z16 | z16 | z16 | z16 | z16 | z16 | z16 | z16 | z16 | z8 z4 e4- | e4 e4 (f4 c4 | %436
w: |||||||||||A-|* gnus De- *|
 d8) c8 | B4 c6 c2 __e4 | e4 B4 (d4 c4 | f8) e8 | z8 e4 f4- | f2 f2 g4 a4 e4 | f8 e8 | z8 z4 c4- | %444
w: * i,|qui tol- lis pec-|ca- ta mun- *|* di,|qui tol-|* lis pec- ca- ta|mun- di,|mi-|
 c4 B4 B4 A4 | G6 F2 G2 A2 F4 | E6 B2 d4 c4 | B8 z4 e4 ||[M:3/1] e4 d4 d4 | c4 B8 |[M:4/2] c16 | %451
w: * se- re- re|no- * * * *||bis, mi-|* se- re-|re no-|bis.|
 z16 | z8 z4!f! e4- | e4 c4 (f6 e2 | d2 c2 B4) e8- | e8 z4 d4 | c4 A4 B4 c4- | c4 B4 A4 F4 | %458
w: |A-|* gnus De- *|* * * i,|_ qui|tol- lis pec- ca-|* ta mun- *|
 c6 BA G4 F4 | c8 F8 | z4 f4 e4 c2 d2 | e12 B4 | z4 d4 c4 A2 B2 | c6 G2 A8 | G8 z8 | z4 c6 B2 B4- | %466
w: |* di,|qui tol- lis pec-|ca- ta,|qui tol- lis pec-|ca- ta mun-|di,|do- na no-|
 B4 A4 (d8 | c8) B8 | z4 G6 F2 F4- | F4 E4 (A8 | G8) F8- | F16 | z8 z4 c4- | c2 B2 B8 A4 | d8 c8- | %475
w: * bis pa-|* cem,|do- na no-|* bis pa-|* cem,|_|do-|* na no- bis|pa- cem,|
 c16 | z4 G6 F2 F4- | F4 E4 A8 | G4 (G8 c4) | c16 |] %480
w: _|do- na no-|* bis pa-|cem, pa- *|cem.|
V:4
 z16 | z16 | z16 |!p! z16 | F,8 C,4 E,4 | D,6 (C,2 B,,4) C,4 | z8 C8 | F,4 A,4 G,6 F,2 | %8
w: ||||Ky- ri- e|e- lei- * son,|Ky-|ri- e e- lei-|
 =E,4 F,4 C,8 | F,16 || z16 | z8 z4 F,4- | F,4 E,8 D,4 | C,8 B,,8 | z8 D,8 | C,8 B,,4 A,,4 | %16
w: |son.||Chri-|* ste e-|lei- son,|Chri-|ste e- lei-|
 C,6 =D,2 E,4 B,,4 | z4 A,8 G,4- | G,4 F,4 E,6 =D,2 |[M:3/1] C,4 =B,,4 C,8 | G,8 |[M:4/2] C,16 || %22
w: * * * son,|Chri- ste|_ e- lei- *|||son.|
 z16 | z8 F,8 |[M:3/1] E,4 C,4 D,8 | C,8 |[M:4/2] z16 | B,8 A,4 F,4 | G,8 F,8 | z16 | C8 B,4 G,4 | %31
w: |Ky-|rie e- lei-|son,||Ky- rie e-|lei- son,||Ky- rie e-|
 A,8 G,8 | F,8 E,4 C,4 | D,8 C,4 F,4- | F,2 F,2 D,4 A,6 G,2 | F,4 C,4 D,4 E,4 | F,8 C,8 | F,16 |] %38
w: lei- son,|Ky- rie e-|lei- son, Ky-|* ri- e e- lei-|||son.|
[M:13/4] z26 |[M:4/2] z16 | z16 | z16 | z16 | z16 | z16 | z8 z4 A,4 | B,4 C4 F,8 | z8 z4 D,2 D,2 | %48
w: |||||||Lau-|da- mus te.|A- do-|
 E,4 F,4 B,,8 | z8 z4 B,,4 | E,4 F,4 D,4 B,,4 | F,16 | z4 B,,4 D,6 E,2 | F,4 (_G,4 F,8) | %54
w: ra- mus te.|Glo-|ri- fi- ca- mus|te,|glo- ri- fi-|ca- mus _|
 B,,8 z4 B,4- | B,2 B,2 E,4 A,6 A,2 | F,8 B,8 | F,8 z8 | z16 | z8 z4 A,4- | A,4 G,4 F,4 E,4 | %61
w: te. Gra-|* ti- as a- gi-|mus ti-|bi||pro-|* pter ma- gnam|
 F,2 F,2 D,4 C,8 | F,16 | z8 z4 A,4- | A,2 A,2 B,4 G,8 | F,8 z8 | z4 F,8 =E,4 | (F,4 C,4 D,8) | %68
w: glo- ri- am tu-|am.|Do-|* mi- ne De-|us,|Rex coe-|le- * *|
 C,8 z8 | z8 z4 D,4- | D,4 E,4 F,4 D,4 | F,4 A,8 G,4 | A,8 z8 | z4 D,8 E,4 | F,4 D,4 F,4 A,4- | %75
w: stis,|De-|* us Pa- ter|o- mni- po-|tens,|De- us|Pa- ter o- mni-|
 A,4 G,4 A,8 | z4 E,4 B,6 B,2 | E,8 z8 | z8 F,6 F,2 | C,8 _D,8 | C,8 z8 | z4 F,6 F,2 B,,4 | %82
w: * po- tens,|o- mni- po-|tens,|Do- mi-|ne Fi-|li,|Do- mi- ne|
 D,4 C,4 D,4 E,4 | F,6 F,2 C,8 | z8 C6 G,2 | (B,4 A,4) G,8 | (E,4 F,4) C,8 | %87
w: Fi- li u- ni-|ge- ni- te|Je- su|Chri- * ste,|Chri- * ste,|
[M:3/1] _D,6 C,2 (C,8 F,8) |[M:4/2] !fermata!C,16 ||[M:4/2] z16 | F,6 F,2 C,4 D,4- | D,4 C,4 E,8 | %92
w: Je- su Chri- *|ste.||Do- mi- ne De-|* us, A-|
 F,4 A,6 G,2 F,2 E,2 | D,2 C,2 B,,4 F,8 | C,8 z4 A,4- | A,2 A,2 G,4 (F,4 E,4 | D,8) C,4 (E,4 | %97
w: gnus De- * * *||i, Fi-|* li- us Pa- *|* tris, Pa-|
 D,4 C,4) B,,8 | z4 B,6 B,2 A,4 ||[M:3/1] G,4 F,4 A,4 G,4 |[M:4/2] F,8 E,8- | E,8 z8 | z8 z4 D,4 | %103
w: * * tris,|Fi- li- us|Pa- * * *|* tris:||Qui|
 A,8 F,4 A,4 | G,4 F,4 E,8 | F,2 G,2 A,8 G,4 | A,4 F,4 A,8 | z4 A,4- A,4 G,4 | F,4 E,4 A,4 B,4 | %109
w: tol- lis pec-|ca- ta mun-||* * di:|mi- * se-|re- re no- *|
 C6 B,2 A,2 G,2 F,4 | E,4 A,4- A,2 B,2 C4 | D4 (C4 B,8) | A,16 | F,16 | C16 | B,8 A,4 G,4- | %116
w: |bis, mi- * ae- re-|re no- *|bis.|Qui|tol-|lis pec- ca-|
 G,4 E,4 B,8 | E,16 | z16 | z4 A,6 A,2 E,4 | F,4 D,4 F,6 G,2 | A,4 G,4 (A,4 B,4) | A,8 z4 A,4- | %123
w: * ta mun-|di:||sus- ci- pe|de- pre- ca- ti-|o- nem no- *|stram, sus-|
 A,2 A,2 E,4 F,4 D,4 | F,6 G,2 A,4 G,4 | (A,4 D,4 E,8) | A,8 z4 F,4 | B,8 E,8- | E,8 z8 | %129
w: * ci- pe de- pre-|ca- ti- o- nem|no- * *|stram. Qui|se- des|_|
 z4 B,,4 E,6 E,2 | C,8 (E,8 | F,8) E,8 | z16 | z8 z4 F,2 G,2 | A,4 G,4 B,8 | E,16- | E,8 z8 | %137
w: ad dex- te-|ram Pa-|* tris:||mi- se-|re- re no-|bis.|_|
 z8 E,8- | E,4 F,4 E,4 G,4 | F,4 E,2 (E,4 =D,C, D,4) | E,8 z8 | z8 z4 G,4 | C6 B,2 A,4 F,4 | %143
w: Quo-|* ni- am tu|so- lus San- * * *|ctus,|tu|so- lus Do- mi-|
 B,8 z8 | z16 | A,8 C6 C2 | =D4 E6 !courtesy!_D2 C2 B,2 | A,4 G,4 C6 C2 | B,4 G,4 C6 C2 | %149
w: nus,||tu so- lus|Al- tis- * * *|* * * si-|mus, Al- tis- si-|
 G,8 A,6 G,2 | (F,4 =E,4 F,8) | C,16 | z8 z4 F,4 | _E,4 A,4 D,6 D,2 | A,8 z4 A,4 | %155
w: mus, Je- su|Chri- * *|ste,|cum|San- cto Spi- ri-|tu in|
 F,6 F,2 E,4 E,4- | E,4 C,4 E,8 | A,,16 | z4 A,4 F,6 F,2 | E,4 F,8 C,4 | D,8 C,8 | C,12 B,,4 | %162
w: glo- ri- a De-|* i Pa-|tris,|in glo- ri-|a De- i|Pa- tris,|De- i|
 C,16 | C,8 z4 F,4- | F,2 E,2 D,2 C,2 D,2 B,,2 B,4- | B,4 =A,4 B,8 | F,16 |[M:7/4] z14 | %168
w: Pa-|tris. A-|||men.||
[M:4/2] z16 | z16 | z16 | z16 | z16 | z16 | z16 | z8 z4 F,4- | F,4 F,4 A,6 A,2 | %177
w: |||||||vi-|* si- bi- li-|
 D,8 (F,3 G, A,4-) | A,4 A,4 E,8 | z16 | z8 E,6 D,2 | B,,4 C,4 D,6 D,2 | C,8 z4 F,4- | %183
w: um o- * *|* mni- um||et in-|vi- si- bi- li-|um. Et|
 F,4 E,4 A,8- | A,4 B,4 C6 C2 | A,4 D4- D4 C4 | B,8 A,4 A,4- | A,2 A,2 G,4 F,8 | E,8 F,6 E,2 | %189
w: * in u-|* num Do- mi-|num Je- * sum|Chri- stum, Fi-|* li- um De-|i u- ni-|
 D,4 D,4 C,8- | C,16 | z4 F,8 F,4 | G,4 A,4 F,8 | E,8 C,4 =D,4 | E,6 E,2 C,4 F,4- | F,4 F,4 E,8 | %196
w: ge- ni- tum:||et ex|Pa- tre na-|tum an- te|o- mni- a sae-|* cu- la.|
 z16 | z8 A,8 | F,6 E,2 F,4 D,4 | A,8 z8 | z4 F,4 D,4 B,,4 | (D,2 E,2 F,4) B,,4 z2 B,2 | %202
w: |Lu-|men de lu- mi-|ne,|de De- o|ve- * * ro, de|
 F,4 A,4 (B,2 C2 D4) | C8 B,6 A,2 | B,4 G,4 (F,8- | F,4 D,4) C,8 | z16 | z8 F,8 | %208
w: De- o ve- * *|ro, ge- ni-|tum non fa-|* * ctum,||con-|
 E,4 F,4- F,2 G,2 A,4- | A,4 F,4 B,8 | A,8 z4 F,4 | G,4 A,4- A,2 G,2 E,4 | F,4 D,4 C,8 | %213
w: sub- stan- * ti- a-|* lem Pa-|tri, per|quem o- * mni a|fa- cta sunt,|
 z8 F,4 G,4 | A,6 G,2 F,4 E,4- | E,4 D,4 C,8 | F,8 E,4 A,4- | A,2 G,2 F,4 E,8- | E,8 F,8 | %219
w: per quem|o- mni- a fa-|* cta sunt,|per quem o-|* mni- a fa-|* cta|
 !fermata!C,16 || A,8 A,4 G,4 | A,4 B,6 A,2 F,4 | z4 A,4 G,4 E,4 | F,8 E,4 C,4 | D,8 C,8 | %225
w: sunt.|Qui pro- pter|nos ho- mi- nes|et pro- pter|no- stram sa-|lu- tem|
 z4 D,4 B,,8 | A,,8 z4 A,4 | E6 D2 B,2 C2 D4 | D2 CB, A,2 B,2 C8 | B,8 z4 E,4 | A,4 G,4 A,6 B,2 | %231
w: de- scen-|dit de-|coe- * * * *||lis: Et|in- car- na- tus|
 A,8 z8 | z4 D,4 A,6 B,2 | C4 D4- (D2 C2 B,4) | F,8 z4 B,,4 | D,6 E,2 F,4 (A,4- | %236
w: est|de Spi- ri-|tu San- * * *|cto, de|Spi- ri- tu San-|
 A,2 G,2 F,4) E,8 | z16 | z4 F,4- F,4 E,4 | F,4 A,4 (G,6 F,2 | E,4) F,4 C,8 | z8 z4 C,4 | %242
w: * * * cto||ex _ Ma-|ri- a vir- *|* gi- ne,|et|
 E,4 D,4 (F,6 E,2 | D,4) D,4 C,8- | C,8 z8 | z16 | z16 | z16 | z16 | z8 z8 | z16 | z16 | %252
w: ho- mo fa- *|* ctus est.|||||||||
 z4!f! F,4 G,4 =A,4 | B,4 C4 F,6 F,2 | B,4 (C4 _A,4) F,4 | z16 | A,6 A,2 E,4 F,4 | %257
w: Et re- sur-|re- xit ter- ti-|a di- * e,||ter- ti- a di-|
 C,4 C,4 A,4 F,2 A,2 | (G,4 _E,4) F,8 | z4 C,4 F,4 D,2 B,,2 | C,8 F,8 | z16 | z16 | z16 | z16 | %265
w: e se- cun- dum scrip-|tu- * ras,|se- cun- dum scrip-|tu- ras.|||||
 F,6 G,2 A,4 B,2 C2 | (D4 E4) F4 C4 | F,4 G,4 A,6 G,2 | A,4 B,2 D2 C3 B, A,2 B,C | %269
w: Et a- scen- dit in-|coe- * lum, se-|det ad- dex- te-|ram Pa- * * * * * *|
 D2 C2 B,4 z4 F,4 | A,6 A,2 G,4 A,4 | F,4 A,4 E,4 z4 | z8 z4 C4 | E6 E2 D4 C4- | C4 A,4 B,4 A,4- | %275
w: * * tris, et|i- te- rum ven-|tu- rus est|cum|glo- ri- a ju-|* di- ca- *|
 A,2 G,2 A,4 F,8 | E,4 C,4 F,6 A,2 | E,4 (C,4 D,4 F,4) | C,8 z8 | z4 A,6 B,2 C4- | %280
w: |re vi- vos et|mor- tu- * *|os,|cu- jus re-|
 C4 F,4- F,4 A,4- | A,4 D4- D4 C4 | B,8 A,4 F,4- | F,2 G,2 A,4- A,4 E,4 | z8 z4 C,4- | %285
w: * gni * non|* e- * rit|fi- nis, cu-|* jus re- * gni,|cu-|
 C,2 D,2 E,4- E,4 B,,4 | z4 F,4 A,4 E,4 | F,12 A,4 | z4 D,8 F,4 | E,6 E,2 A,4 (C4 | B,8) A,8 | %291
w: * jus re- * gni|non e- rit|fi- nis.|Et in|Spi- ri- tum San-|* ctum|
 B,6 B,2 E,8 | z8 z4 B,4 | F,4 G,2 B,2 A,8 | E,16 | z8 z4 F,4- | F,2 E,2 (F,2 G,2 A,4) A,,4 | %297
w: Do- mi- num|et|vi- vi- fi- can-|tem,|qui|_ ex Pa- * * tre|
 z4 A,4 G,4 F,4- | F,4 B,,4 C,4 (E,3 D, | C,3 B,, A,,4) E,8 | z4 F,8 E,4 | (D,3 E, F,2 G,2 A,8) | %302
w: Fi- li- o-|* que pro- ce- *|* * * dit,|qui cum|Pa- * * * *|
 D,8 z8 | z4 F,4 A,4 B,4 | E,8 z8 | z4 A,8 B,4 | C4 D4 B,8 | A,8 z8 | z8 z4 D4 | C4 F,4 A,6 B,2 | %310
w: tre|et Fi- li-|o|si- mul|a- do- ra-|tur|et|con- glo- ri- fi-|
 C8 F,8 | z4 A,8 A,4 | B,4 A,4 A,8 | z4 A,8 D,4 |[M:3/1] F,8 E,8- | E,8 |[M:4/2] !fermata!A,16 || %317
w: ca- tur,|qui lo-|cu- tus est|per Pro-|phe- *||tas.|
 z8 A,8 | C4 A,4 z4 A,4- | (A,2 B,2 C4) A,8 | z8 z4 E,4 | F,6 A,2 E,4 E,4 | F,4 D,4 A,6 A,2 | %323
w: Et|u- nam san-|* * * ctam|ca-|tho- li- cam et|a- po- sto- li-|
 E,8 B,4 A,4- | A,4 D4 C8 | z4 F,4 B,6 B,2 | E,4 E,6 E,2 E,4 | F,16 | B,,8 F,4 F,4 | G,6 A,2 B,8 | %330
w: cam Ec- cle-|* si- am.|Con- fi- te-|or u- num ba-|ptis-|ma in re-|mis- si- o-|
 F,8 A,8- | A,4 E,4 F,8- | F,8 C,8- | C,8 z8 | E,8 F,4 A,4- | A,4 E,4 A,3 B, C2 D2 | E4 C4 B,8 | %337
w: nem pec-|* ca- to-|* rum:|_|Et ex- spe-|* cto re- sur- re- cti-|o- nem mor-|
 F,4 A,6 G,2 F,2 E,2 || D,8 E,8- | E,8 z4 F,4 | A,4 G,2 A,2 B,4 C4 | D4 B,4 A,8 | z8 z4 E,4 | %343
w: tu- o- * * *|* rum,|* et|vi- tam ven- tu- ri|sae- cu- li,|et|
 A,4 F,2 A,2 G,4 E,4 | F,6 F,2 E,8 | (A,4 F,4) E,8 | z4 D,4 A,4 F,2 A,2 | G,4 A,4 F,6 F,2 | %348
w: vi- tam ven- tu- ri|sae- cu- li.|A- * men,|et vi- tam ven-|tu- ri sae- cu-|
 C,8 D,8 | C,4 F,4 D,4 B,,4 | F,8 C,8 | !fermata!F,16 |[M:4/2] z16 | z16 | z16 | %355
w: li. A-|men. A- * *||men.||||
 F,6 G,2 _A,2 B,2 C4- | C4 _D4 C8 | F,16 | z4 B,,6 C,2 D,2 E,2 | F,16 | z16 | z16 | %362
w: San- * * * *||ctus,|San- * * *|ctus,|||
 C,6 =D,2 E,2 F,2 G,4- | G,2 A,2 B,8 F,4 | G,8 C,8 | z4 A,6 A,2 A,4 | G,4 A,4 F,6 F,2 | %367
w: San- * * * *|* * * (ctus,|San)- ctus:|Do- mi- nus|De- us Sa- ba-|
 E,4 (C,4 _D,6) D,2 | C,4 A,6 A,2 A,4 | G,4 A,4 z4 C4- | C2 C2 C4 B,4 E,4 | A,6 A,2 G,4 C,4 | %372
w: oth, Sa- * ba-|oth, Do- mi- nus|De- us, Do-|* mi- nus De- us|Sa- ba- oth, Sa-|
[M:3/1] G,4 E,4 F,8 | C,8 |[M:4/2] F,16 | z16 | z16 | z16 | z16 | z16 | z16 | z16 | z16 | z16 | %384
w: |ba-|oth.||||||||||
 z16 | z16 |[M:3/1] z16 | z8 |[M:4/2] z4 F,4 A,6 F,2 | G,4 A,4 (B,4 D4) | C8 z8 | z8 F,8 | %392
w: ||||O- san- na|in ex- cel- *|sis,|O-|
 B,6 A,2 B,2 C2 D4- | (D4 C4) B,8 | F,4 A,8 E,4 | F,4 F,4 C8 | C,16 || z16 | z16 | z4 F,8 C,4 | %400
w: san- na in ex- cel-|* * sis,|O- san- na|in ex- cel-|sis.|||Be- ne-|
 D,4 C,4 B,,4 E,4- | (E,4 F,4) C,8 | z8 A,8- | A,4 G,4 C,2 D,E, F,4 | =E,4 F,8 D,4- | %405
w: di- ctus qui ve-|* * nit,|qui|_ ve- * * * *|nit, qui ve-|
 D,4 B,,4 F,8 | C,8 F,8 | z16 | z8 F,8 | A,6 A,2 F,8 | (B,12 E,4 | F,12) F,4 | B,,16 | z16 | z16 | %415
w: |* nit||in|no- mi- ne|Do- *|* mi-|ni.|||
 z8 z4 B,,4 | F,6 G,2 A,4 F,4 | B,8 F,8 | z8 z4 B,,4 | F,6 G,2 A,4 F,4 | C16 | F,8 C,8 | %422
w: O-|san- na in ex-|cel- sis,|O-|san- na in ex-|cel-||
 !fermata!F,16 |] z16 | z16 | z16 | z16 | z16 | z16 | z16 | z16 | z16 | z16 | z16 | z16 | %435
w: sis.|||||||||||||
 A,12 A,4 | B,4 F,4 A,8 | G,4 A,4 F,8 | z8 F,4 A,4- | A,2 A,2 B,4 C4 A,4 | D8 C4 F,4 | B,8 A,8 | %442
w: A- gnus|De- * *|* * i,|qui tol-|* lis pec- ca- ta|mun- * *|* di,|
 z4 A,8 G,4 | G,4 F,4 C,4 E,4 | D,8 E,4 C,4 | E,8 z4 C4- | C4 B,4 B,4 A,4 | %447
w: mi- se-|re- re no- *||bis, mi-|* se- re- re|
 G,3 A, B,4 F,3 G, A,4 ||[M:3/1] E,3 F, _G,4 D,3 E, | F,2 C,2 D,4 E,4 |[M:4/2]!f! A,,16 | %451
w: no- * * * * *|||bis.|
 A,12 F,4 | (B,6 A,2 G,2 F,2 E,4) | A,8 D,8- | (D,4 E,4) E,8 | z4 C4 A,4 F,2 G,2 | A,8 E,8 | %457
w: A- gnus|De- * * * *|i, De-|* * i,|qui tol- lis pec-|ca- ta-|
 (E,8 F,8) | C,8 z8 | z4 C4 A,4 F,2 G,2 | A,16 | E,16 | F,4 D,2 F,4 C,2 D,4 | C,16 | C,16 | %465
w: mun- *|di,|qui tol- lis pec-|ca-|ta-|mun- * * * *|di,|do-|
 C,8 F,8- | F,4 F,4 D,4 B,,4 | F,6 E,2 D,4 B,,4 | C,16- | C,8 z4 C4- | C2 B,2 B,8 A,4 | D8 C8 | %472
w: na no-|* bis pa- *||cem,|_ do-|* na no- bis|pa- cem,|
 (B,8 A,8) | B,8 F,6 E,2 | D,4 B,,4 C,8- | C,8 F,8 | C,8 C,8 | C,12 F,4 | C,16 | F,16 |] %480
w: pa- *|cem, do- na|no- bis pa-|* cem,|do- na|no- bis|pa-|cem.|

